X: 1
T: K\"okar Engelska
O: K\"okar, \AAland, Finland
R: reel
Z: John Chambers <jc@trillian.mit.edu>
N: Yet another version of Soldier's Joy
M: 2/4
L: 1/16
K: D
|: "D"AFDF AFDF | A2dd f3d | AFDF AFDF | "A7"F2EE E4 \
|  "D"AFDF AFDF | A2dd f2f2 | "A7"g2g2 gecA | "D"e2d2 d4 :|
|: "D"f2f2 fdAd | "A7"e2e2 ecAc | "D"f2f2 fdAd | "A7"edcB A4 \
|  "D"f2f2 fdAd | "A7"e2e2 ecAc | "A7"g2g2 gecA | "D"e2d2 d4 :|
